X:1
T:Sing and Rejoice
T:Sing and Rejoice
T:R. Frank Lehman
T:Alice Jean Cleator, 1901
T:Public Domain Courtesy of the Cyber Hymnal™
T:Public Domain Courtesy of the Cyber Hymnal™
C:R. Frank Lehman
Z:Public Domain
Z:Courtesy of the Cyber Hymnal™
%%score ( 1 2 ) ( 3 4 )
L:1/8
Q:1/4=103
M:4/4
K:C
V:1 treble 
V:2 treble 
V:3 bass 
V:4 bass 
V:1
"^With Spirit" G2 G>G c2 z G | E2 F2 G2 (EC) | [CA]2 [CG]2 [DF]2 [CE]2 | ([CE]4 [B,D]2) z2 | %4
w: Sing and re- joice! The|Lord is come! Oh, *|mes- sage glad and|sweet; *|
 G2 G>G c2 z G | E2 F2 G2 [GA]2 | [GB]2 (dc) [GB]2 [^FA]2 |S G4 z2 G2 | G3 A [FG]2 [FG]2 | %9
w: Ye na- tions, bring your|gifts of love To|lay at * Je- sus’|feet. Re-|joice from shore to|
 (d4 G2) [FG]2 | [EG]3 [EA] [EG]2 [EG]2 | ([Ge]4 [Ec]2) [EG]2 | [FG]3 [FA] [FG]2 [FG]2 | %13
w: shore! * Be|glad, ye sons of|men! * The|night of gloom is|
 d4 G2 [FG]2 | [EG]3 [EA] [EG]2 [EG]2 | ([Ge]4 [Ec]2) G2 | A2 B2 c2 d2 | (z2 ^gb e'2) E2 | %18
w: o- ver, The|King of kings shall|reign! * The|King of kings shall|* * * reign!|
 F2 G2 A2 B2 | (z2 eg c'2) c2 | (c4 B2) [=Fc]2 | [Gcf]6 [Ge]2 | [Fd]6 [Ec]2 | [Ec]6!fine! || %24
w: The King of kings|* * * shall|reign! * The|King, the|King of|kings|
"^Duet, Andante" [A,C]2 | [A,C]2 [A,F]2 [A,F]2 [B,G]2 | [CA]6 [CA]2 | [_Ec]2 [D_B]2 [DB]2 [_DF]2 | %28
w: shall|reign. The day of|peace is|nigh, A- jar the|
 [CA]6 [CA]2 | [^CA]2 [CE]2 [CA]2 [CG]2 | [DF]6 [CF]2 | [B,G]2 [B,D]2 [B,E]2 [B,F]2 | %32
w: gates of|Heav’n! Sweet hopes that|ne’er shall|die, To mor- tals|
 [_B,G]4 z2 [B,C]2 | [A,C]2 [A,A]2 [A,A]2 [B,G]2 | [CA]6 [CF]2 | [_DF]2 [DG]2 [D_A]2 [DF]2 | %36
w: have been|giv’n. Re- joice, the|Lord is|come! Oh, glad an-|
 [CA]4 z2"^Full Chorus" F2 | E2 D2 C2 E2 | G2 E2 c2 G2 | [Ge]4 [Fd]4 | !fermata![Ec]6!D.S.! |] %41
w: gel- ic|strain, The King of|kings in right- eous-|ness For-|e’er|
V:2
 G2 G>G c2 G x | E2 F2 G2 EC | x8 | x8 | G2 G>G c2 G x | E2 F2 G2 x2 | x2 G2 x4 | G4 G2 x2 | %8
 F4 x4 | F6 x2 | x8 | x8 | x8 | F6 x2 | x8 | x6 G2 | A2 B2 c2 d2 | (e6 E2) | F2 G2 A2 B2 | %19
 (c6 c2) | ^F6 x2 | x8 | x8 | x6 || x2 | x8 | x8 | x8 | x8 | x8 | x8 | x8 | x8 | x8 | x8 | x8 | %36
 x6 F2 | E2 D2 C2 E2 | G2 E2 c2 G2 | x8 | x6 |] %41
V:3
 G,2 G,>G, C2 z G, | E,2 F,2 G,2 E,C, | [F,C]2 [E,C]2 [B,,G,]2 [C,G,]2 | [G,,G,]6 z2 | %4
w: re- joice, be glad, is|o’er, shall reign! * *|||
 G,2 G,>G, C2 z G, | E,2 F,2 G,2 [_E,^C]2 | [D,D]2 ([B,,D][C,E]) [D,D]2 [D,C]2 | [G,B,]4 z2 G,2 | %8
w: ||||
 [B,,G,]2 [G,,G,]2 [B,,G,]2 [G,,G,]2 | [B,,G,]2 [G,,G,]2 [B,,G,]2 [G,,G,]2 | %10
w: ||
 [C,G,]2 [G,,G,]2 [C,G,]2 [G,,G,]2 | [C,G,]2 [G,,G,]2 [C,G,]2 [G,,G,]2 | %12
w: ||
 [B,,G,]2 [G,,G,]2 [B,,G,]2 [G,,G,]2 | [B,,G,]2 [G,,G,]2 [B,,G,]2 [G,,G,]2 | %14
w: ||
 [C,G,]2 [G,,G,]2 [C,G,]2 [G,,G,]2 | [C,G,]2 [G,,G,]2 [C,G,]2 [C,G,]2 | %16
w: ||
 [A,,A,]2 [B,,B,]2 [C,C]2 [D,D]2 | [E,E]6 [E,,E,]2 | [F,,F,]2 [G,,G,]2 [A,,A,]2 [B,,B,]2 | %19
w: |||
 [C,C]6 [C,C]2 | [_A,_E]6 [A,E]2 | [G,E]6 [G,C]2 | [G,B,]6 [C,G,C]2 | [C,G,C]6 || z2 | %25
w: ||||||
 F,,2 C,2 F,2 z2 | (F,,2 C,2 F,2) z2 | F,,2 B,,2 F,2 z2 | (F,,2 C,2 F,2) z2 | A,,2 E,2 A,2 z2 | %30
w: |||||
 (D,2 C,2 B,,2) A,,2 | G,,2 D,2 G,2 z2 | (C,2 _B,,2 A,,2) G,,2 | F,,2 C,2 F,2 z2 | %34
w: ||||
 F,,2 B,,2 F,2 z2 | _D,2 F,2 _A,2 z2 | C,2 F,2 A,2 F,2 | E,2 D,2 C,2 E,2 | G,2 E,2 C2 G,2 | %39
w: |||||
 [G,C]4 [G,B,]4 | !fermata![C,G,C]6 |] %41
w: ||
V:4
 G,2 G,>G, C2 G, x | E,2 F,2 G,2 (E,C,) | x8 | x8 | G,2 G,>G, C2 G, x | _E,2 F,2 G,2 x2 | x8 | %7
 x6 G,2 | x8 | x8 | x8 | x8 | x8 | x8 | x8 | x8 | x8 | x8 | x8 | x8 | x8 | x8 | x8 | x6 || x2 | %25
 x8 | x8 | x8 | x8 | x8 | x8 | x8 | x8 | x8 | x8 | x8 | x6 F,2 | E,2 D,2 C,2 E,2 | G,2 E,2 C2 G,2 | %39
 x8 | x6 |] %41

